src/assets/icons/menu/about.svg

<?xml version="1.0" encoding="UTF-8"?>
<svg width="44px" height="44px" viewBox="0 0 44 44" version="1.1" xmlns="http://www.w3.org/2000/svg" xmlns:xlink="http://www.w3.org/1999/xlink">
    <title>Icon-About-default</title>
    <g id="Icon-About-default" stroke="none" stroke-width="1" fill="none" fill-rule="evenodd">
        <rect id="Rectangle" x="0" y="0" width="44" height="44"></rect>
        <g id="Group-9" transform="translate(11.000000, 4.000000)">
            <path d="M13.9771079,0.465860964 C23.2418545,3.22209413 24.4781705,15.9974862 15.9076186,20.5552708 C14.3684121,21.3738895 13.2001277,22.7504214 12.5712322,24.3766209 L10.4069553,29.9720365 C9.81062756,31.5139752 8.12956576,32.3390965 6.54511419,31.8675752 L3.03501519,30.8234961 C1.4502904,30.3519202 0.493696074,28.7421685 0.837460207,27.12504 C2.09071571,21.2238923 2.98015281,19.1386303 1.37843381,16.2328371 C-3.30590577,7.73261179 4.71012081,-2.29119186 13.9771079,0.465860964" id="Fill-1" stroke="#70AF85" stroke-width="1.6"></path>
            <path d="M5.17849712,7.19892221 C4.58298901,7.27340171 4.25157437,8.04513607 4.38403094,8.63747484 C4.57315312,9.48259582 5.40352028,10.1481026 6.12219551,10.6873276 C6.31661814,9.69778309 6.53929162,8.84386446 6.32935015,8.12857715 C6.18213976,7.62678315 5.24292216,7.19088957 5.17849712,7.19892221 L5.17849712,7.19892221 Z M13.4620597,11.2205965 C12.7941486,11.6994401 12.3935003,12.4421586 12.0798995,13.284602 C13.2515172,13.4879862 14.0879498,13.3620323 14.6355353,12.9036801 C15.5544254,12.1346233 14.9672232,10.1399061 13.4620597,11.2205965 L13.4620597,11.2205965 Z M8.10237746,25.4648139 C9.28863967,20.7408575 10.7756613,15.5865266 11.3944477,13.677327 C9.64120146,13.2852031 7.96953839,12.5691507 6.47661518,11.5750161 C5.68586478,15.5364183 4.78462462,19.5132846 3.79212932,23.41742 L3.28814957,23.289171 C4.29665551,19.3207745 5.21101018,15.2774067 6.01088609,11.2513609 C5.12325224,10.6091324 4.11201411,9.80477565 3.87666328,8.75097001 C3.76579101,8.25737258 3.87917689,7.69251964 4.17157585,7.27673498 C4.95008604,6.16954235 6.45136975,6.69680035 6.82835731,7.98207713 C7.07813411,8.83315428 6.8328381,9.77220795 6.58661315,11.0213105 C8.08674933,12.0538597 9.78240103,12.7913871 11.5633517,13.1818717 C11.9105037,12.2257145 12.3613697,11.3698833 13.1585134,10.7978174 C15.9561666,8.79036819 17.2929178,14.7686729 11.9070612,13.7820791 C11.4188735,15.274893 9.87037754,20.559768 8.60652114,25.5914782 L8.10237746,25.4648139 Z" id="Fill-3" fill="#70AF85"></path>
            <path d="M12.6311874,24.2391972 C12.6122807,24.2855898 12.589221,24.3297966 12.5712432,24.3766263 L10.4069663,29.972042 C9.81063849,31.5139806 8.12957669,32.339102 6.54512512,31.8677446 L3.03502612,30.8235016 C1.45030133,30.3519256 0.493707003,28.742174 0.837471136,27.1250454 C1.39494716,24.4999027 1.87963765,22.6309209 2.10586297,21.1079436 L12.6311874,24.2391972 Z" id="Fill-5" fill="#70AF85"></path>
        </g>
    </g>
</svg>

<?xml version="1.0" encoding="utf-8"?>
<!-- Generator: Adobe Illustrator 25.0.0, SVG Export Plug-In . SVG Version: 6.00 Build 0)  -->
<svg version="1.1" id="Calque_1" xmlns="http://www.w3.org/2000/svg" xmlns:xlink="http://www.w3.org/1999/xlink" x="0px" y="0px"
	 viewBox="0 0 44 44" style="enable-background:new 0 0 44 44;" xml:space="preserve">
<style type="text/css">
	.st0{display:none;}
	.st1{display:inline;fill:none;}
	.st2{display:inline;}
	.st3{fill:none;stroke:#4878C0;stroke-width:1.6;}
	.st4{fill-rule:evenodd;clip-rule:evenodd;fill:#4878C0;}
	.st5{fill:#FDC00F;}
	.st6{fill:#433930;}
	.st7{fill:#FFFFFF;}
	.st8{fill:#FC611F;}
</style>
<g id="Icon-About-default" class="st0">
	<rect id="Rectangle" class="st1" width="44" height="44"/>
	<g id="Group-9" transform="translate(11.000000, 4.000000)" class="st2">
		<path id="Fill-1" class="st3" d="M14,0.5c9.3,2.8,10.5,15.5,1.9,20.1c-1.5,0.8-2.7,2.2-3.3,3.8L10.4,30c-0.6,1.5-2.3,2.4-3.9,1.9
			l-3.5-1c-1.6-0.5-2.5-2.1-2.2-3.7c1.3-5.9,2.1-8,0.5-10.9C-3.3,7.7,4.7-2.3,14,0.5"/>
		<path id="Fill-3" class="st4" d="M5.2,7.2C4.6,7.3,4.3,8,4.4,8.6c0.2,0.8,1,1.5,1.7,2c0.2-1,0.4-1.8,0.2-2.6
			C6.2,7.6,5.2,7.2,5.2,7.2L5.2,7.2z M13.5,11.2c-0.7,0.5-1.1,1.2-1.4,2.1c1.2,0.2,2,0.1,2.6-0.4C15.6,12.1,15,10.1,13.5,11.2
			L13.5,11.2z M8.1,25.5c1.2-4.7,2.7-9.9,3.3-11.8c-1.8-0.4-3.4-1.1-4.9-2.1c-0.8,4-1.7,7.9-2.7,11.8l-0.5-0.1c1-4,1.9-8,2.7-12
			c-0.9-0.6-1.9-1.4-2.1-2.5c-0.1-0.5,0-1.1,0.3-1.5C5,6.2,6.5,6.7,6.8,8c0.2,0.9,0,1.8-0.2,3c1.5,1,3.2,1.8,5,2.2
			c0.3-1,0.8-1.8,1.6-2.4c2.8-2,4.1,4-1.3,3c-0.5,1.5-2,6.8-3.3,11.8L8.1,25.5z"/>
		<path id="Fill-5" class="st4" d="M12.6,24.2c0,0,0,0.1-0.1,0.1L10.4,30c-0.6,1.5-2.3,2.4-3.9,1.9l-3.5-1c-1.6-0.5-2.5-2.1-2.2-3.7
			c0.6-2.6,1-4.5,1.3-6L12.6,24.2z"/>
	</g>
</g>
<g id="XMLID_1_">
	<circle id="XMLID_7_" class="st3" cx="22" cy="22" r="14.2"/>
	<g id="XMLID_2_">
		<path id="XMLID_6_" class="st5" d="M9.8,24c-0.6-0.6-0.7-1.5-0.1-2.2c1.9-2.2,6.4-6.6,12.3-6.8c5.9-0.2,11,4.6,13,6.8
			c0.6,0.6,0.5,1.6-0.1,2.2c-2.2,2.1-7.6,6.4-12.5,6.4C17.3,30.4,12,26,9.8,24z"/>
		<circle id="XMLID_5_" class="st6" cx="22.1" cy="22.7" r="6.4"/>
		<circle id="XMLID_4_" class="st7" cx="20.4" cy="22.3" r="3.3"/>
		<circle id="XMLID_3_" class="st8" cx="23.6" cy="21.1" r="1"/>
	</g>
</g>
</svg>
